icon/pk/clothes-hoodie.svg

<svg width="48" height="48" fill="none" xmlns="http://www.w3.org/2000/svg"><path d="M37 22v15m-26 0v7h26v-7m-26 0H4V22c0-3 2-6.5 5-9s7-3 7-3l8 8M11 37V22m26 15h7V22c0-3-2-6.5-5-9s-7-3-7-3l-8 8m0 0v9" stroke="#000" stroke-width="4" stroke-linecap="round" stroke-linejoin="round"/><path d="M9 13c3-2.5 7-3 7-3l8 8 8-8s4 .5 7 3l2-4.5L39 4H9L7 8.5 9 13Z" fill="#2F88FF" stroke="#000" stroke-width="4" stroke-linecap="round" stroke-linejoin="round"/></svg>

<svg viewBox="0 0 48 48" fill="none" xmlns="http://www.w3.org/2000/svg" height="1em" width="1em">
  <path d="M37 22V37M11 37V44H37V37M11 37H4V22C4 19 6 15.5 9 13C12 10.5 16 10 16 10L24 18M11 37V22M37 37H44V22C44 19 42 15.5 39 13C36 10.5 32 10 32 10L24 18M24 18V27" stroke="black" stroke-width="4" stroke-linecap="round" stroke-linejoin="round"/>
  <path d="M9 13C12 10.5 16 10 16 10L24 18L32 10C32 10 36 10.5 39 13L41 8.5L39 4H9L7 8.5L9 13Z" fill="#2F88FF" stroke="black" stroke-width="4" stroke-linecap="round" stroke-linejoin="round"/>
</svg>
